X: 111
P: Polska fr\aan Ullervad, V\"asterg\"otland
O: efter Hans Kennemark
Z: John Chambers <jc@trillian.mit.edu>
M: 3/4
L: 1/8
K: D
|: "A(Em)"{f}~g2 (f<d) "A7"e>c | "D"{c}d2 (A<d) f>a \
| "A(Em)"g2 (f<d) "A7"e>c |1 "G"d2 ((3BGB) "A7"A2 :|2,4 "A7"((3ABc) "D"d4 :|
|: "A7"{B}c>(d e>)(A ~c>)e | "A7"(3gfg a2 "D"f>d \
| "A7"c>(d e>)(A ~c>)e |1,3 "G"d>d ((3BGB) "A7"A2 :|2,4 "A7"(3cBc "D"d4 :|
%%newpage
